X:187
T: AUF AUF IHR BRUEDER
N: E1329
O: Europa, Mitteleuropa, Deutschland, Hessen, Marburg
R: Staende -, Soldaten -, Kriegs - Lied
M: 4/4
L: 1/8
K: Bb
F2 | B2B2BBcc | d2ddd2
Bd | f2f2gfed | f2c2z2
cd | e2g2g2fe | d2f2f2
dd | c2eeg2fe | ddccB2
cd | e2g2g2fe | d2f2f2
dd | c2eeg2fe | ddccB2

@@@ Tune index: 4871
